lib/logotmp/nrk-logo-nrk-vestland.svg

<svg width="105" height="24" viewBox="0 0 105 24" fill="none" xmlns="http://www.w3.org/2000/svg">
<path d="M0 17.9978V5.99889H4V17.9978H0ZM9.24381 7.90858L11.5081 17.9978H7.19917L4.49549 5.99889H6.91217C7.46635 5.9917 8.00406 6.18705 8.4245 6.54819C8.84562 6.89418 9.08495 7.3745 9.24381 7.90858ZM12 17.9978V5.99889H16V17.9978H12ZM19.0105 10.5619C18.5862 10.566 18.1687 10.455 17.8025 10.2408C17.4412 10.0319 17.1411 9.73176 16.9323 9.3704C16.7178 9.00413 16.6068 8.58656 16.611 8.16212C16.6061 7.74026 16.7172 7.32518 16.9323 6.96223C17.1433 6.60479 17.4431 6.3079 17.8025 6.10032C18.1689 5.88631 18.5862 5.77532 19.0105 5.77919C19.4322 5.77464 19.8471 5.88573 20.2102 6.10032C20.566 6.30972 20.8626 6.60636 21.072 6.96223C21.2868 7.32528 21.3979 7.7403 21.3933 8.16212C21.3973 8.58653 21.2863 9.00403 21.072 9.3704C20.8649 9.73018 20.5679 10.0301 20.2102 10.2408C19.8471 10.4558 19.4324 10.5669 19.0105 10.5619ZM22 17.9978V5.99889H26V17.9978H22ZM30.9737 12.556C30.9848 12.5677 31.0693 12.7057 31.2272 12.9701C31.3851 13.2345 31.5906 13.5725 31.8439 13.9841C32.0974 14.3955 32.3649 14.8321 32.6463 15.2938C32.9278 15.7555 33.1926 16.1922 33.4408 16.6036C33.6881 17.015 33.9697 17.4797 34.2857 17.9978H29.9598C29.6893 17.5584 29.4441 17.1613 29.2245 16.8064C29.0048 16.4515 28.7713 16.0684 28.5238 15.6572C28.2758 15.2463 28.0306 14.8463 27.7882 14.4573C27.5458 14.0682 27.3375 13.7274 27.1633 13.4349C26.9883 13.1421 26.8671 12.9449 26.7997 12.8433C26.6325 12.5912 26.5336 12.3001 26.5127 11.9983C26.5294 11.7087 26.6226 11.4288 26.7828 11.1869C26.8503 11.0742 26.9743 10.8742 27.1545 10.5869C27.3348 10.2996 27.546 9.95885 27.7882 9.56453C28.0304 9.1702 28.2756 8.76741 28.5238 8.35618C28.772 7.94495 29.0055 7.55904 29.2245 7.19851C29.4445 6.83835 29.6897 6.43839 29.9598 5.99862H34.2857L30.9396 11.4573C30.8361 11.6194 30.7777 11.8061 30.7706 11.9983C30.7818 12.2001 30.8528 12.3941 30.9737 12.556Z" fill="white"/>
<g clip-path="url(#clip0_5918_1211)">
<path d="M46.1652 6.01H47.9217L43.7501 18.0011H41.5546L37.3999 6.01H39.2915L41.7572 13.4073C41.8923 13.7901 42.0246 14.1983 42.1541 14.6318C42.2836 15.0653 42.4103 15.5016 42.5341 15.9407C42.5989 16.1743 42.6608 16.3967 42.7199 16.6134C42.7762 16.4079 42.8353 16.194 42.8972 15.9744C43.0155 15.5466 43.1393 15.1187 43.2688 14.6909C43.3983 14.263 43.5249 13.8577 43.6488 13.4749L46.1652 6.01ZM55.8172 12.0224C55.958 12.6304 55.9889 13.3285 55.9101 14.1167H49.8076C49.8301 14.5473 49.8892 14.9189 49.9906 15.2313C50.1201 15.6254 50.3115 15.9379 50.5648 16.1687C50.8181 16.3995 51.1306 16.5627 51.5021 16.6584C51.8737 16.7541 52.3128 16.802 52.8195 16.802C53.0672 16.802 53.3149 16.7879 53.5626 16.7598C53.8103 16.7316 54.0523 16.6866 54.2888 16.6247C54.5252 16.5627 54.7532 16.4924 54.9728 16.4136C55.1923 16.3347 55.4091 16.2559 55.623 16.1771L55.5048 17.4776C55.2008 17.6352 54.8968 17.7647 54.5928 17.866C54.2888 17.9673 53.9651 18.0433 53.6217 18.094C53.2783 18.1447 52.8814 18.17 52.431 18.17C51.4852 18.17 50.6858 18.0039 50.0328 17.6718C49.3798 17.3396 48.8872 16.8499 48.555 16.2024C48.2229 15.555 48.0568 14.7697 48.0568 13.8464C48.0568 13.1484 48.1497 12.515 48.3355 11.9464C48.5212 11.3779 48.7915 10.8909 49.1461 10.4856C49.5008 10.0802 49.9315 9.76496 50.4381 9.53978C50.9448 9.31459 51.519 9.202 52.1608 9.202C52.8026 9.202 53.374 9.30896 53.875 9.52289C54.3761 9.73681 54.7898 10.0549 55.1163 10.4771C55.4429 10.8993 55.6765 11.4144 55.8172 12.0224ZM50.0581 11.9296C49.954 12.2054 49.8864 12.5404 49.8442 12.9176H54.286C54.286 12.5798 54.2466 12.2617 54.1621 11.9718C54.0326 11.5214 53.8046 11.1696 53.4781 10.9162C53.1516 10.6629 52.7181 10.5362 52.1777 10.5362C51.6372 10.5362 51.2206 10.6516 50.8603 10.8824C50.5001 11.1133 50.2326 11.4623 50.0581 11.9296ZM63.3581 14.1167C63.1892 13.9365 62.9922 13.7817 62.767 13.6522C62.5418 13.5227 62.3054 13.413 62.0577 13.3229C61.8775 13.2666 61.7002 13.2075 61.5257 13.1456C61.3512 13.0836 61.1766 13.0273 61.0021 12.9767C60.8276 12.926 60.6587 12.8725 60.4955 12.8162C60.3322 12.7599 60.183 12.698 60.0479 12.6304C59.9015 12.5516 59.7692 12.4672 59.651 12.3771C59.5328 12.287 59.4371 12.1801 59.3639 12.0562C59.2907 11.9324 59.2541 11.7916 59.2541 11.634C59.2541 11.4539 59.2935 11.299 59.3723 11.1696C59.4512 11.0401 59.5694 10.9303 59.727 10.8402C59.8846 10.7501 60.0732 10.6826 60.2928 10.6376C60.5124 10.5925 60.7629 10.57 61.0443 10.57C61.1682 10.57 61.3033 10.5756 61.4497 10.5869C61.5961 10.5981 61.7565 10.6179 61.931 10.646C62.1055 10.6741 62.2801 10.7107 62.4546 10.7558C62.6291 10.8008 62.8064 10.8515 62.9866 10.9078C63.1667 10.9641 63.33 11.026 63.4763 11.0936L63.5946 9.72556C63.3806 9.63548 63.1695 9.55667 62.9612 9.48911C62.7529 9.42156 62.5418 9.36526 62.3279 9.32022C62.114 9.27519 61.9029 9.24422 61.6946 9.22733C61.4863 9.21044 61.2808 9.202 61.0781 9.202C60.5715 9.202 60.1098 9.25548 59.6932 9.36244C59.2766 9.46941 58.9135 9.62704 58.6039 9.83533C58.2943 10.0436 58.055 10.3082 57.8861 10.6291C57.7172 10.95 57.6328 11.33 57.6328 11.7691C57.6328 12.0844 57.6778 12.363 57.7679 12.6051C57.858 12.8472 57.9762 13.0527 58.1226 13.2216C58.2689 13.3904 58.4406 13.5396 58.6377 13.6691C58.8347 13.7986 59.0458 13.9084 59.271 13.9984C59.3949 14.0435 59.5243 14.0885 59.6595 14.1336C59.7946 14.1786 59.9269 14.2208 60.0563 14.2602C60.1858 14.2996 60.3125 14.339 60.4363 14.3784C60.5602 14.4179 60.6812 14.4573 60.7995 14.4967C60.9177 14.5361 61.0331 14.5727 61.1457 14.6064C61.3033 14.6627 61.4497 14.7275 61.5848 14.8007C61.7199 14.8739 61.8353 14.9527 61.931 15.0371C62.0267 15.1216 62.0999 15.2201 62.1506 15.3327C62.2012 15.4453 62.2266 15.5691 62.2266 15.7042C62.2266 15.9857 62.1337 16.2081 61.9479 16.3713C61.7621 16.5346 61.5201 16.65 61.2217 16.7176C60.9233 16.7851 60.6052 16.8189 60.2675 16.8189C60.0873 16.8189 59.8875 16.8048 59.6679 16.7767C59.4483 16.7485 59.2175 16.7091 58.9755 16.6584C58.7334 16.6078 58.4857 16.5459 58.2323 16.4727C57.979 16.3995 57.7229 16.3179 57.4639 16.2278L57.5315 17.6633C57.8242 17.7647 58.0916 17.8463 58.3337 17.9082C58.5758 17.9701 58.8066 18.0236 59.0261 18.0687C59.2457 18.1137 59.4596 18.1419 59.6679 18.1531C59.8762 18.1644 60.0873 18.17 60.3012 18.17C60.7966 18.17 61.2639 18.1221 61.703 18.0264C62.1421 17.9307 62.5249 17.7816 62.8515 17.5789C63.178 17.3762 63.4341 17.1116 63.6199 16.7851C63.8057 16.4586 63.8986 16.0701 63.8986 15.6198C63.8986 15.282 63.8507 14.9921 63.755 14.75C63.6593 14.5079 63.527 14.2968 63.3581 14.1167ZM70.3755 16.6416C70.2798 16.6584 70.1841 16.6753 70.0883 16.6922C69.9926 16.7091 69.8998 16.7204 69.8097 16.726C69.7196 16.7316 69.6352 16.7344 69.5564 16.7344C69.2636 16.7344 69.0131 16.6838 68.8048 16.5824C68.5965 16.4811 68.4361 16.3319 68.3235 16.1349C68.2109 15.9379 68.1546 15.6986 68.1546 15.4171V10.7389H70.5359L70.7217 9.38778H68.1546V6.71933L66.4319 7.32733V9.38778H65.1315L64.9457 10.7389H66.4319V15.7718C66.4319 16.1546 66.4826 16.4839 66.5839 16.7598C66.6852 17.0356 66.8175 17.2636 66.9808 17.4438C67.1441 17.6239 67.3355 17.7647 67.555 17.866C67.7746 17.9673 68.0082 18.0405 68.2559 18.0856C68.5036 18.1306 68.7457 18.1531 68.9821 18.1531C69.1623 18.1531 69.3396 18.1475 69.5141 18.1362C69.6886 18.125 69.8491 18.1081 69.9955 18.0856C70.1418 18.063 70.2798 18.0377 70.4092 18.0096C70.5387 17.9814 70.6485 17.9561 70.7386 17.9336L70.8399 16.5318C70.7836 16.5543 70.7161 16.574 70.6372 16.5909C70.5584 16.6078 70.4712 16.6247 70.3755 16.6416ZM75.2901 16.7598C75.2395 16.7654 75.1803 16.7682 75.1128 16.7682C74.9664 16.7682 74.8426 16.7457 74.7412 16.7007C74.6399 16.6556 74.5555 16.5853 74.4879 16.4896C74.4203 16.3939 74.3725 16.2728 74.3443 16.1264C74.3162 15.9801 74.3021 15.8056 74.3021 15.6029V5.25L72.5795 5.50333V16.3629C72.5795 16.6894 72.6245 16.9681 72.7146 17.1989C72.8046 17.4297 72.9341 17.6183 73.103 17.7647C73.2719 17.911 73.4718 18.0152 73.7026 18.0771C73.9334 18.139 74.1839 18.17 74.4541 18.17C74.5892 18.17 74.7187 18.1644 74.8426 18.1531C74.9664 18.1419 75.0875 18.125 75.2057 18.1024C75.3239 18.0799 75.4224 18.0574 75.5012 18.0349L75.6701 16.7007L75.4675 16.7344C75.3999 16.7457 75.3408 16.7541 75.2901 16.7598ZM84.9421 16.9202C85.0322 16.909 85.1279 16.8864 85.2292 16.8527L85.0435 17.9842C84.9872 18.0067 84.9224 18.0264 84.8492 18.0433C84.7761 18.0602 84.6944 18.0799 84.6044 18.1024C84.5143 18.125 84.4214 18.139 84.3257 18.1447C84.23 18.1503 84.1315 18.1531 84.0301 18.1531C83.6698 18.1531 83.3489 18.094 83.0675 17.9758C82.786 17.8576 82.5664 17.6661 82.4088 17.4016C82.3243 17.2608 82.2652 17.0947 82.2258 16.9033C82.1189 17.0272 82.0091 17.1482 81.8937 17.258C81.5841 17.5507 81.2294 17.7759 80.8297 17.9336C80.43 18.0912 79.9543 18.17 79.4026 18.17C78.8058 18.17 78.3076 18.0574 77.9079 17.8322C77.5082 17.607 77.2098 17.3115 77.0128 16.9456C76.8158 16.5796 76.7172 16.1827 76.7172 15.7549C76.7172 15.3045 76.8439 14.8907 77.0972 14.5136C77.3506 14.1364 77.7362 13.8239 78.2541 13.5762C78.7721 13.3285 79.4251 13.1821 80.2132 13.1371L82.1864 13.0048V12.5826C82.1864 12.2561 82.1555 11.9718 82.0879 11.7297C82.0203 11.4876 81.9078 11.2878 81.7501 11.1301C81.5925 10.9725 81.3758 10.8543 81.0999 10.7755C80.8241 10.6967 80.4835 10.6573 80.0781 10.6573C79.8529 10.6573 79.6249 10.6657 79.3941 10.6826C79.1633 10.6995 78.9297 10.7304 78.6932 10.7755C78.4568 10.8205 78.2119 10.8768 77.9586 10.9444C77.7052 11.0119 77.4378 11.0964 77.1564 11.1977L77.359 9.76215C77.6405 9.64956 77.9361 9.55104 78.2457 9.46659C78.5553 9.38215 78.8846 9.31741 79.2337 9.27237C79.5827 9.22733 79.9374 9.20481 80.2977 9.20481C80.7931 9.20481 81.2378 9.24985 81.6319 9.33993C82.026 9.43 82.3666 9.55948 82.6537 9.72837C82.9408 9.89726 83.1744 10.1056 83.3546 10.3533C83.5347 10.601 83.6698 10.8881 83.7599 11.2146C83.85 11.5411 83.895 11.9014 83.895 12.2955L83.8612 15.7746C83.85 16.1912 83.9119 16.4896 84.047 16.6697C84.1821 16.8499 84.4017 16.9399 84.7057 16.9399C84.7732 16.9399 84.8521 16.9343 84.9421 16.923V16.9202ZM82.1752 15.9097L82.1836 14.2349H80.7058C80.1541 14.2349 79.715 14.2799 79.3885 14.37C79.062 14.4601 78.8255 14.6008 78.6792 14.7922C78.5328 14.9836 78.4596 15.2482 78.4596 15.586C78.4596 15.845 78.5159 16.0673 78.6285 16.2531C78.7411 16.4389 78.9072 16.5824 79.1267 16.6838C79.3463 16.7851 79.6137 16.8358 79.9289 16.8358C80.1766 16.8358 80.4159 16.8133 80.6467 16.7682C80.8775 16.7232 81.0971 16.65 81.3054 16.5487C81.5137 16.4473 81.7107 16.3235 81.8965 16.1771C81.995 16.0983 82.0879 16.0082 82.178 15.9125L82.1752 15.9097ZM93.4541 9.55385C93.0263 9.31741 92.4858 9.19919 91.8328 9.19919C91.3486 9.19919 90.8673 9.27519 90.3888 9.42719C89.9103 9.57919 89.4571 9.79593 89.0292 10.0774C88.866 10.1844 88.7084 10.3026 88.5564 10.4236V9.21607L86.8337 9.46941V17.9983H88.5564V11.5833C88.7224 11.4876 88.8913 11.3976 89.0715 11.3187C89.3135 11.2118 89.5556 11.1189 89.7977 11.0401C90.0398 10.9613 90.2818 10.9021 90.5239 10.8627C90.766 10.8233 90.9996 10.8036 91.2248 10.8036C91.5401 10.8036 91.8103 10.8459 92.0355 10.9303C92.2607 11.0147 92.4464 11.1414 92.5928 11.3103C92.7392 11.4792 92.8461 11.6931 92.9137 11.9521C92.9812 12.211 93.015 12.515 93.015 12.8641V17.9983H94.7377V12.5094C94.7377 11.7438 94.6307 11.1189 94.4168 10.6347C94.2029 10.1506 93.882 9.7903 93.4541 9.55385ZM104.922 5.26689V18.0011H103.52L103.309 17.2214C103.182 17.3143 103.055 17.4016 102.929 17.4776C102.546 17.714 102.155 17.8885 101.755 18.0011C101.355 18.1137 100.93 18.17 100.48 18.17C99.703 18.17 99.0359 17.9983 98.4786 17.6549C97.9212 17.3115 97.4934 16.8245 97.195 16.194C96.8966 15.5635 96.7475 14.8147 96.7475 13.9478C96.7475 12.9344 96.9445 12.0759 97.3386 11.3722C97.7326 10.6685 98.2534 10.1309 98.9008 9.75933C99.5482 9.38778 100.249 9.202 101.003 9.202C101.431 9.202 101.823 9.23859 102.177 9.31178C102.532 9.38496 102.856 9.47785 103.148 9.59044C103.165 9.59607 103.182 9.60452 103.199 9.61296V5.50333L104.922 5.26689ZM103.199 16.1124V10.9078C103.112 10.8768 103.019 10.8402 102.937 10.8149C102.673 10.7304 102.411 10.6685 102.152 10.6291C101.893 10.5897 101.623 10.57 101.341 10.57C100.756 10.57 100.252 10.691 99.8297 10.9331C99.4075 11.1752 99.0838 11.5299 98.8586 11.9971C98.6334 12.4644 98.5208 13.047 98.5208 13.7451C98.5208 14.4432 98.6221 15.0033 98.8248 15.4593C99.0275 15.9153 99.3202 16.2531 99.703 16.4727C100.086 16.6922 100.547 16.802 101.088 16.802C101.448 16.802 101.851 16.7204 102.295 16.5571C102.58 16.453 102.881 16.301 103.199 16.1124Z" fill="white"/>
</g>
<defs>
<clipPath id="clip0_5918_1211">
<rect width="68" height="14" fill="white" transform="translate(37 5)"/>
</clipPath>
</defs>
</svg>

<svg xmlns="http://www.w3.org/2000/svg" viewBox="0 0 105 24"><path fill="#fff" d="M0 17.998v-12h4v12H0Zm9.244-10.09 2.264 10.09H7.2l-2.704-12h2.417a2.276 2.276 0 0 1 1.513.55c.42.346.66.827.819 1.36ZM12 17.999v-12h4v12h-4Zm7.01-7.436a2.382 2.382 0 0 1-2.4-2.4 2.301 2.301 0 0 1 .322-1.2A2.41 2.41 0 0 1 20.21 6.1c.356.21.653.506.862.862.215.363.326.778.321 1.2a2.35 2.35 0 0 1-.321 1.208 2.4 2.4 0 0 1-.862.87 2.3 2.3 0 0 1-1.2.322ZM22 17.998v-12h4v12h-4Zm8.974-5.442c.01.012.095.15.253.414s.364.602.617 1.014a315.936 315.936 0 0 1 1.597 2.62c.247.411.529.876.845 1.394H29.96c-.27-.44-.516-.837-.736-1.192-.22-.355-.453-.738-.7-1.149-.248-.41-.493-.81-.736-1.2-.242-.389-.45-.73-.625-1.022-.175-.293-.296-.49-.363-.592a1.747 1.747 0 0 1-.287-.845c.016-.29.11-.57.27-.811.067-.113.191-.313.371-.6s.392-.628.634-1.022c.242-.395.488-.798.736-1.209l.7-1.157.736-1.2h4.326l-3.346 5.458a1.08 1.08 0 0 0-.17.541c.012.202.083.396.204.558Z"/><g clip-path="url(#a)"><path fill="#fff" d="M46.165 6.01h1.757L43.75 18.001h-2.195L37.4 6.01h1.892l2.465 7.397c.135.383.268.791.397 1.225.13.433.256.87.38 1.309l.186.672a90.108 90.108 0 0 1 .549-1.922c.13-.428.256-.833.38-1.216l2.516-7.465Zm9.652 6.012c.141.608.172 1.306.093 2.095h-6.102c.022.43.081.802.183 1.114.13.394.32.707.574.938.253.23.566.394.937.49.372.095.81.143 1.317.143.248 0 .496-.014.744-.042.247-.028.49-.073.726-.135.236-.062.464-.133.684-.211l.65-.237-.118 1.3a6.331 6.331 0 0 1-.912.389 5.701 5.701 0 0 1-.971.228 8.24 8.24 0 0 1-1.191.076c-.946 0-1.745-.166-2.398-.498a3.303 3.303 0 0 1-1.478-1.47c-.332-.647-.498-1.432-.498-2.356 0-.698.093-1.331.279-1.9a4.14 4.14 0 0 1 .81-1.46c.355-.406.785-.721 1.292-.946.507-.225 1.081-.338 1.723-.338.642 0 1.213.107 1.714.32a3.06 3.06 0 0 1 1.241.955c.327.422.56.937.701 1.545Zm-5.759-.092c-.104.275-.172.61-.214.988h4.442c0-.338-.04-.656-.124-.946-.13-.45-.357-.802-.684-1.056-.326-.253-.76-.38-1.3-.38s-.957.116-1.318.346c-.36.231-.627.58-.802 1.048Zm13.3 2.187a2.537 2.537 0 0 0-.591-.465 4.517 4.517 0 0 0-.71-.33c-.18-.055-.357-.114-.531-.176a9.301 9.301 0 0 0-.524-.17c-.174-.05-.343-.104-.507-.16a3.684 3.684 0 0 1-.447-.186 2.994 2.994 0 0 1-.397-.253 1.113 1.113 0 0 1-.287-.32.814.814 0 0 1-.11-.423c0-.18.04-.335.118-.464a.961.961 0 0 1 .355-.33c.158-.09.346-.157.566-.202.22-.046.47-.068.751-.068a5.293 5.293 0 0 1 .887.076c.175.028.35.065.524.11.174.045.351.095.532.152.18.056.343.118.49.186l.118-1.368a7.977 7.977 0 0 0-.634-.237 6.179 6.179 0 0 0-.633-.169 5.057 5.057 0 0 0-.633-.093 7.626 7.626 0 0 0-.617-.025c-.507 0-.968.053-1.385.16-.416.107-.78.265-1.09.473-.309.209-.548.473-.717.794-.169.321-.253.701-.253 1.14 0 .315.045.594.135.836.09.242.208.448.355.617.146.168.318.318.515.447.197.13.408.24.633.33a15.182 15.182 0 0 0 .785.261 31.179 31.179 0 0 1 .744.237c.118.04.233.076.346.11.157.056.304.12.439.194.135.073.25.152.346.236a.865.865 0 0 1 .296.667c0 .282-.093.504-.28.667a1.62 1.62 0 0 1-.725.347 4.317 4.317 0 0 1-.955.1c-.18 0-.38-.013-.6-.041a8.932 8.932 0 0 1-.692-.119c-.242-.05-.49-.112-.743-.185s-.51-.155-.768-.245l.068 1.435c.292.102.56.183.802.245s.473.116.692.16c.22.046.434.074.642.085.208.011.42.017.633.017.496 0 .963-.048 1.402-.144.44-.095.822-.244 1.148-.447.327-.203.583-.467.769-.794.186-.326.279-.715.279-1.165 0-.338-.048-.628-.144-.87a1.978 1.978 0 0 0-.397-.633Zm7.018 2.525-.288.05a2.491 2.491 0 0 1-.278.034c-.09.006-.175.008-.254.008-.292 0-.543-.05-.751-.152a1.09 1.09 0 0 1-.482-.447 1.425 1.425 0 0 1-.168-.718V10.74h2.38l.187-1.351h-2.567V6.719l-1.723.608v2.06h-1.3l-.186 1.352h1.486v5.033c0 .383.05.712.152.988.101.276.233.504.397.684.163.18.355.32.574.422.22.101.453.175.7.22.249.045.49.067.727.067.18 0 .358-.005.532-.017a5.503 5.503 0 0 0 .895-.126c.13-.029.24-.054.33-.076l.1-1.402a1.266 1.266 0 0 1-.202.059 7.353 7.353 0 0 1-.261.05Zm4.914.118c-.05.005-.11.008-.177.008a.914.914 0 0 1-.372-.067.61.61 0 0 1-.253-.211.927.927 0 0 1-.144-.364 2.815 2.815 0 0 1-.042-.523V5.25l-1.723.253v10.86c0 .326.046.605.136.836.09.23.22.42.388.566.169.146.369.25.6.312.23.062.48.093.751.093.135 0 .265-.006.389-.017a3.716 3.716 0 0 0 .658-.118l.17-1.334-.204.033c-.067.012-.126.02-.177.026Zm9.652.16a1.5 1.5 0 0 0 .287-.067l-.186 1.131a1.336 1.336 0 0 1-.194.06c-.073.016-.155.036-.245.058-.09.023-.183.037-.278.043a5.061 5.061 0 0 1-.296.008c-.36 0-.681-.059-.963-.177a1.364 1.364 0 0 1-.658-.574 1.58 1.58 0 0 1-.183-.499 4.97 4.97 0 0 1-.332.355c-.31.293-.665.518-1.064.676-.4.157-.876.236-1.427.236-.597 0-1.095-.113-1.495-.338-.4-.225-.698-.52-.895-.886a2.473 2.473 0 0 1-.296-1.191c0-.45.127-.864.38-1.241.254-.378.64-.69 1.157-.938.518-.248 1.171-.394 1.96-.439l1.972-.132v-.422c0-.327-.03-.611-.098-.853a1.338 1.338 0 0 0-.338-.6c-.157-.158-.374-.276-.65-.355a3.774 3.774 0 0 0-1.022-.118c-.225 0-.453.009-.684.026a6.13 6.13 0 0 0-.7.092 9.905 9.905 0 0 0-1.537.422l.202-1.435c.282-.112.577-.211.887-.295.31-.085.639-.15.988-.195a8.305 8.305 0 0 1 1.064-.067c.495 0 .94.045 1.334.135.394.09.735.22 1.022.388.287.17.52.378.7.625.18.248.316.535.406.862.09.326.135.686.135 1.08l-.034 3.48c-.011.416.05.715.186.895.135.18.355.27.659.27.067 0 .146-.006.236-.017v-.003Zm-2.767-1.01.009-1.675h-1.478c-.552 0-.991.045-1.318.135-.326.09-.563.23-.709.422-.146.192-.22.456-.22.794 0 .259.057.481.17.667.112.186.278.33.498.43.22.102.487.153.802.153.248 0 .487-.023.718-.068.23-.045.45-.118.658-.22a2.757 2.757 0 0 0 .873-.636l-.003-.002Zm11.28-6.356c-.429-.237-.97-.355-1.622-.355-.484 0-.966.076-1.444.228a5.487 5.487 0 0 0-1.36.65c-.163.107-.32.226-.473.347V9.216l-1.722.253V18h1.722v-6.416a5.22 5.22 0 0 1 .516-.264c.242-.107.484-.2.726-.279.242-.079.484-.138.726-.177.242-.04.476-.06.7-.06.316 0 .586.043.811.127.226.085.411.211.558.38.146.17.253.383.32.642.068.259.102.563.102.912v5.134h1.723V12.51c0-.765-.107-1.39-.321-1.874-.214-.484-.535-.845-.963-1.081Zm11.467-4.287V18h-1.402l-.211-.78c-.127.093-.254.18-.38.257a4.61 4.61 0 0 1-1.174.523c-.4.113-.825.169-1.275.169-.777 0-1.444-.172-2.001-.515a3.353 3.353 0 0 1-1.284-1.461c-.298-.63-.447-1.38-.447-2.246 0-1.014.197-1.872.59-2.576.395-.704.915-1.241 1.563-1.613a4.152 4.152 0 0 1 2.102-.557 5.815 5.815 0 0 1 2.145.388c.017.006.034.015.051.023v-4.11l1.723-.236Zm-1.723 10.845v-5.204c-.087-.031-.18-.068-.262-.093a5.083 5.083 0 0 0-1.596-.245c-.585 0-1.089.121-1.511.363a2.382 2.382 0 0 0-.971 1.064c-.226.467-.338 1.05-.338 1.748s.101 1.258.304 1.714c.203.456.495.794.878 1.014.383.22.844.329 1.385.329.36 0 .763-.082 1.207-.245.285-.104.586-.256.904-.445Z"/></g><defs><clipPath id="a"><path fill="#fff" d="M37 5h68v14H37z"/></clipPath></defs></svg>
